Papirus-Dark/16x16/actions/hypnotoad.svg

<svg xmlns="http://www.w3.org/2000/svg" id="Capa_1" width="16" height="16" x="0" y="0" version="1.1" viewBox="0 0 16 16" xml:space="preserve">
 <defs>
  <style id="current-color-scheme" type="text/css">
   .ColorScheme-Text { color:#dfdfdf; } .ColorScheme-Highlight { color:#4285f4; }
  </style>
 </defs>
 <path style="fill:currentColor" class="ColorScheme-Text" d="m14.68 12.246c-0.12082-0.01574-0.23438 0.03846-0.30396 0.13208l-0.473-0.06171 0.6814-0.70035c0.11044 0.02981 0.23264 0 0.31904-0.09027 0.12964-0.1359 0.12892-0.3555-0.000884-0.49037-0.12992-0.13505-0.3404-0.13454-0.47032 0.000803-0.08552 0.08965-0.11407 0.21567-0.08632 0.32994l-0.60894 0.62601 0.20301-0.80508c0.10742-0.03325 0.19836-0.11701 0.22899-0.23853 0.04663-0.18514-0.05949-0.37444-0.23694-0.42316-0.17763-0.04889-0.35954 0.06202-0.40616 0.247-0.03066 0.1214 0.009 0.24094 0.08689 0.3252l-0.22058 0.87431-0.24924-0.93998c0.07708-0.08506 0.11515-0.20512 0.08321-0.32631-0.04911-0.18433-0.23198-0.29268-0.40901-0.24197-0.31505 0.0908-0.33456 0.56304 0 0.66191l0.19548 0.73808c-0.14846 0.06703-1.1744 0.5296-1.2799 0.57762 0.07161-0.32782 0.05555-0.25547 0.3148-1.4394 0.0013 0.0073 0.01588-0.10446 0.01648-0.16038 0.01868-0.64586-0.55548-1.2414-1.3302-0.96483-0.03781 0.014177 0.0064-0.011363-0.79225 0.42785 0.18539-0.76275 0.31411-1.5763 0.37331-2.3449 0.85997 0.54535 1.2058-0.059314 1.2998-0.32082 0.01249-0.034713 1.0506-3.2669 1.0506-3.2669l0.71132-0.7437c0.10919 0.027624 0.22802 0.00313 0.31303-0.086 0.12972-0.13585 0.12901-0.35545-0.000913-0.49049-0.12981-0.13492-0.3404-0.13436-0.47021 0.000959-0.08501 0.089127-0.10831 0.21299-0.08153 0.32681l-0.61838 0.64649 0.20757-0.82226c0.10754-0.033462 0.19839-0.11724 0.22902-0.2387 0.04671-0.1852-0.0594-0.37449-0.23694-0.42315-0.17763-0.04889-0.35942 0.06192-0.40616 0.24696-0.03063 0.12135 0.009 0.24087 0.08698 0.32515l-0.22 0.8738-0.249-0.9398c0.07708-0.085166 0.11515-0.20517 0.08321-0.32636-0.0491-0.18433-0.2321-0.29269-0.40901-0.24192-0.17703 0.050975-0.2808 0.24192-0.2321 0.42672 0.03211 0.12084 0.12396 0.20321 0.23178 0.23517l0.22939 0.86497s-0.55918 1.14-1.1131 2.2698c-0.074-0.0773-0.148-0.1549-0.215-0.2244-0.091-0.095-0.174-0.1818-0.247-0.259-0.09-0.5551-0.238-1.0231-0.4346-1.4022 0.0773-0.1131 0.1238-0.2506 0.1238-0.3998 0-0.3821-0.29726-0.69167-0.66364-0.69167-0.035389 0-0.069324 0.00521-0.10323 0.010737l-0.3762-0.3921c0.00197-0.023559 0.00673-0.045971 0.00673-0.069843 0-0.46701-0.36253-0.84842-0.80993-0.84842-0.44737 0-0.8099 0.38141-0.8099 0.84842 0 0.023872 0.00476 0.046284 0.00673 0.069843l-0.3761 0.3921c-0.033906-0.00521-0.067841-0.010737-0.10323-0.010737-0.36638 0-0.66364 0.30957-0.66364 0.69167 0 0.1492 0.046511 0.28669 0.12376 0.39982-0.1962 0.3791-0.3445 0.847-0.4341 1.4022-0.0738 0.0771-0.1568 0.1639-0.2478 0.2589-0.0664 0.0695-0.1408 0.1472-0.2148 0.2245-0.5539-1.1298-1.1131-2.2698-1.1131-2.2698l0.2294-0.865c0.1078-0.032 0.1996-0.1143 0.2318-0.2351 0.0487-0.1849-0.0551-0.3758-0.2321-0.4268-0.177-0.0507-0.36 0.0576-0.4091 0.2419-0.031938 0.12119 0.00613 0.24123 0.083211 0.32636l-0.2492 0.9398-0.2206-0.8742c0.078-0.0842 0.1177-0.2038 0.087-0.3251-0.0467-0.1851-0.2285-0.2959-0.4061-0.247-0.1776 0.0487-0.2837 0.238-0.237 0.4232 0.0307 0.1214 0.1215 0.2052 0.229 0.2387l0.2076 0.8222-0.6183-0.6465c0.0268-0.1138 0.0035-0.2377-0.0815-0.3268-0.1299-0.1353-0.3404-0.1359-0.4702-0.0009-0.13 0.135-0.1307 0.3546-0.0009 0.4905 0.084979 0.088815 0.20381 0.11363 0.313 0.086l0.71132 0.7437s1.0382 3.2322 1.0506 3.2669c0.094076 0.26147 0.4399 0.86617 1.2998 0.32081 0.059229 0.76858 0.18795 1.5821 0.37331 2.3449-0.7986-0.4396-0.7544-0.4141-0.7922-0.4283-0.7747-0.2766-1.3489 0.3193-1.3302 0.9653 0.0005989 0.05587 0.015171 0.1673 0.016483 0.16038 0.25924 1.184 0.24319 1.1116 0.31479 1.4394-0.10557-0.04805-1.1315-0.51061-1.2799-0.57762l0.19548-0.73808c0.33456-0.09893 0.31505-0.57116 0-0.66192-0.17703-0.05077-0.35991 0.05765-0.40901 0.24198-0.031939 0.12116 0.00613 0.2412 0.083211 0.32631l-0.2493 0.94-0.2206-0.874c0.07785-0.08433 0.11755-0.2038 0.08689-0.3252-0.046625-0.18496-0.22853-0.2959-0.40616-0.247-0.17746 0.04868-0.28357 0.23803-0.23694 0.42316 0.030655 0.12152 0.12159 0.20528 0.22899 0.23852l0.20301 0.80509-0.60891-0.62601c0.027775-0.11427-0.0007984-0.24028-0.08632-0.32994-0.12992-0.13534-0.3404-0.13585-0.47032-0.000803-0.12981 0.13487-0.13052 0.35446-0.000884 0.49037 0.086405 0.09027 0.2086 0.12007 0.31904 0.09027l0.68138 0.70035-0.473 0.06171c-0.06958-0.09361-0.18313-0.1478-0.30396-0.13208-0.18228 0.02387-0.31152 0.19718-0.28882 0.38671 0.022728 0.18977 0.18898 0.32467 0.37146 0.30131 0.12082-0.01585 0.21792-0.09767 0.26321-0.20624l0.7394-0.097c0.077993 0.04514 2.2047 1.277 2.2047 1.277 0.23041 0.13344 0.51324 0.12033 0.73136-0.03388 0.21812-0.15422 0.33464-0.42333 0.30071-0.69578-0.086633-0.69557-0.16859-1.3506-0.16896-1.3537 0.044229 0.03044 1.2039 0.86168 1.792 1.2797 0.23096 0.26111 0.47799 0.41747 0.73459 0.41747 0.25659 0 0.50363-0.15638 0.73459-0.41747 0.58807-0.41804 1.7478-1.2493 1.792-1.2797-0.00037 0.0031-0.08233 0.65817-0.16896 1.3537-0.03394 0.27245 0.08261 0.54158 0.30071 0.69578 0.21815 0.15422 0.50095 0.16733 0.73136 0.03388 0 0 2.1268-1.2318 2.2047-1.277l0.73943 0.09653c0.04528 0.10862 0.14238 0.1904 0.26321 0.20624 0.18248 0.02335 0.34873-0.11154 0.37143-0.30134 0.02276-0.18956-0.10648-0.36284-0.28876-0.38671z"/>
</svg>

<svg xmlns="http://www.w3.org/2000/svg" width="16" height="16" version="1.1">
 <defs>
  <style id="current-color-scheme" type="text/css">
   .ColorScheme-Text { color:#dfdfdf; } .ColorScheme-Highlight { color:#4285f4; }
  </style>
 </defs>
 <path style="fill:currentColor" class="ColorScheme-Text" d="M 14.679,12.246 C 14.558,12.23 14.445,12.284 14.375,12.378 L 13.902,12.316 14.583,11.616 C 14.694,11.646 14.816,11.616 14.902,11.526 15.032,11.39 15.031,11.17 14.902,11.035 14.772,10.9 14.561,10.901 14.431,11.036 14.346,11.126 14.317,11.252 14.345,11.366 L 13.736,11.992 13.939,11.187 C 14.046,11.154 14.137,11.07 14.168,10.949 14.215,10.763 14.109,10.574 13.931,10.525 13.753,10.476 13.572,10.587 13.525,10.772 13.494,10.894 13.534,11.013 13.612,11.098 L 13.391,11.972 13.142,11.032 C 13.219,10.947 13.257,10.827 13.225,10.706 13.176,10.521 12.993,10.413 12.816,10.464 12.501,10.554 12.482,11.027 12.816,11.126 L 13.012,11.864 11.732,12.441 12.047,11.002 C 12.047,11.002 12.062,10.897 12.063,10.841 12.082,10.196 11.508,9.6004 10.733,9.877 L 9.9403,10.304 C 10.126,9.5421 10.255,8.7286 10.314,7.96 11.174,8.5053 11.52,7.9006 11.614,7.6391 L 12.664,4.3722 13.376,3.6285 C 13.485,3.6562 13.604,3.6317 13.689,3.5425 13.818,3.4067 13.818,3.1871 13.688,3.0521 13.558,2.9171 13.347,2.9177 13.218,3.053 13.133,3.1421 13.109,3.266 13.136,3.3798 L 12.518,4.0263 12.725,3.2041 C 12.833,3.1706 12.924,3.0868 12.954,2.9654 13.001,2.7802 12.895,2.5909 12.717,2.5422 12.54,2.4933 12.358,2.6041 12.311,2.7892 12.28,2.9105 12.32,3.03 12.398,3.1143 L 12.178,3.9881 11.929,3.0483 C 12.006,2.9631 12.044,2.8431 12.012,2.722 11.963,2.5376 11.78,2.4293 11.603,2.48 11.426,2.531 11.322,2.722 11.371,2.9068 11.403,3.0276 11.495,3.11 11.603,3.1419 L 11.832,4.0069 10.719,6.2767 10.257,5.7933 C 10.167,5.2382 10.019,4.7702 9.8224,4.3911 9.8997,4.278 9.9462,4.1405 9.9462,3.9913 9.9462,3.6092 9.6489,3.2996 9.2825,3.2996 9.2825,3.2996 9.2132,3.3048 9.1793,3.3104 L 8.8031,2.9183 C 8.8031,2.9183 8.8098,2.8723 8.8098,2.8484 8.8098,2.3814 8.4473,2 7.9999,2 7.5525,2 7.19,2.3814 7.19,2.8484 7.19,2.8723 7.1967,2.9183 7.1967,2.9183 L 6.8206,3.3104 C 6.8206,3.3104 6.7528,3.2996 6.7174,3.2996 6.351,3.2996 6.0538,3.6092 6.0538,3.9913 6.0538,4.1405 6.1003,4.278 6.1775,4.3911 5.9813,4.7702 5.833,5.2381 5.7434,5.7933 L 5.2808,6.2767 4.1677,4.0069 4.3971,3.1419 C 4.5049,3.1099 4.5967,3.0276 4.6289,2.9068 4.6776,2.7219 4.5738,2.531 4.3968,2.48 4.2198,2.4293 4.0368,2.5376 3.9877,2.7219 3.9558,2.8431 3.9938,2.9631 4.0709,3.0483 L 3.8217,3.9881 3.6011,3.1139 C 3.6791,3.0297 3.7188,2.9101 3.6881,2.7888 3.6414,2.6037 3.4596,2.4929 3.282,2.5418 3.1044,2.5905 2.9983,2.7798 3.045,2.965 3.0757,3.0864 3.1665,3.1702 3.274,3.2037 L 3.4816,4.0259 2.8633,3.3794 C 2.8901,3.2656 2.8668,3.1417 2.7818,3.0526 2.6519,2.9173 2.4414,2.9167 2.3116,3.0517 2.1816,3.1867 2.1809,3.4063 2.3107,3.5422 2.3957,3.631 2.5145,3.6558 2.6237,3.6282 L 3.335,4.3719 4.3856,7.6388 C 4.4797,7.9002 4.8255,8.5049 5.6854,7.9596 5.7447,8.7282 5.8734,9.5417 6.0588,10.304 L 5.2666,9.8762 C 4.4919,9.5996 3.9177,10.195 3.9364,10.841 3.937,10.897 3.9528,11.001 3.9528,11.001 L 4.2676,12.441 2.9877,11.863 3.1832,11.125 C 3.5178,11.026 3.4983,10.554 3.1832,10.463 3.0062,10.412 2.8233,10.521 2.7742,10.705 2.7423,10.826 2.7803,10.946 2.8574,11.032 L 2.6081,11.972 2.3875,11.098 C 2.4654,11.013 2.5051,10.894 2.4744,10.772 2.4278,10.587 2.2459,10.476 2.0682,10.525 1.8908,10.574 1.7847,10.763 1.8313,10.948 1.862,11.07 1.9529,11.154 2.0603,11.187 L 2.2633,11.992 1.6544,11.366 C 1.6822,11.252 1.6536,11.126 1.5681,11.036 1.4381,10.901 1.2277,10.9 1.0977,11.035 0.96792,11.17 0.96721,11.39 1.0969,11.526 1.1833,11.616 1.3055,11.646 1.4159,11.616 L 2.0973,12.316 1.6243,12.378 C 1.5547,12.284 1.4412,12.23 1.3203,12.246 1.138,12.27 1.0088,12.443 1.0315,12.633 1.0542,12.822 1.2205,12.957 1.403,12.934 1.5238,12.918 1.6209,12.836 1.6662,12.728 L 2.4056,12.631 4.6103,13.908 C 4.8407,14.041 5.1235,14.028 5.3416,13.874 5.5598,13.72 5.6763,13.451 5.6423,13.178 L 5.4734,11.824 7.2654,13.104 C 7.4963,13.365 7.7434,13.522 8,13.522 8.2566,13.522 8.5036,13.365 8.7346,13.104 L 10.527,11.824 10.358,13.178 C 10.324,13.451 10.441,13.72 10.659,13.874 10.877,14.028 11.16,14.041 11.39,13.908 L 13.595,12.631 14.334,12.727 C 14.379,12.836 14.476,12.918 14.597,12.934 14.78,12.957 14.946,12.822 14.969,12.632 14.992,12.443 14.862,12.269 14.68,12.245 Z"/>
</svg>
